flaticon/outdoor/campfire.svg

<svg xmlns="http://www.w3.org/2000/svg" width="32" height="32" viewBox="0 0 24 24">
    <path d="M 23.972656 21.351562 C 24.042969 20.902344 23.976562 20.445312 23.777344 20.027344 C 23.515625 19.472656 23.050781 19.050781 22.46875 18.84375 C 22.46875 18.839844 22.464844 18.839844 22.460938 18.839844 L 16.496094 16.703125 C 17.945312 15.199219 18.867188 12.957031 18.867188 10.324219 C 18.867188 5.476562 17.609375 3.613281 17.609375 3.613281 C 17.609375 7.597656 14.253906 10.324219 14.253906 10.324219 C 14.253906 7.179688 12.996094 4.453125 12.996094 4.453125 C 12.996094 6.917969 11.320312 8.226562 11.320312 8.226562 C 9.078125 5.988281 11.320312 0.679688 11.320312 0.679688 C 8.128906 1.101562 5.273438 3.300781 5.273438 6.96875 C 5.273438 9.5625 5.996094 11.289062 7.128906 12.417969 C 7.128906 12.417969 6.125 11.835938 5.125 11.453125 C 5.390625 13.550781 6.265625 15.394531 7.515625 16.699219 L 1.546875 18.835938 C 1.542969 18.839844 1.535156 18.839844 1.53125 18.839844 C 0.949219 19.050781 0.484375 19.46875 0.222656 20.027344 C 0.0234375 20.445312 -0.0429688 20.902344 0.0273438 21.351562 C 0.046875 21.5 0.0859375 21.644531 0.136719 21.789062 C 0.203125 21.976562 0.300781 22.148438 0.410156 22.308594 C 0.636719 22.644531 0.945312 22.917969 1.320312 23.097656 C 1.632812 23.246094 1.96875 23.320312 2.304688 23.320312 C 2.304688 23.320312 2.308594 23.320312 2.308594 23.320312 C 2.570312 23.320312 2.832031 23.273438 3.085938 23.183594 L 12 19.992188 L 20.914062 23.183594 C 20.941406 23.195312 20.96875 23.195312 20.992188 23.203125 C 21.101562 23.238281 21.214844 23.269531 21.328125 23.289062 C 21.378906 23.296875 21.429688 23.296875 21.484375 23.300781 C 21.554688 23.308594 21.625 23.320312 21.695312 23.320312 C 21.71875 23.320312 21.746094 23.316406 21.769531 23.316406 C 21.792969 23.316406 21.816406 23.3125 21.839844 23.3125 C 21.972656 23.304688 22.105469 23.285156 22.234375 23.253906 C 22.246094 23.25 22.257812 23.246094 22.269531 23.242188 C 22.40625 23.207031 22.546875 23.160156 22.679688 23.097656 C 23.054688 22.917969 23.363281 22.640625 23.59375 22.304688 C 23.699219 22.144531 23.796875 21.976562 23.863281 21.789062 C 23.914062 21.648438 23.953125 21.5 23.972656 21.351562 Z M 21.199219 22.394531 C 20.828125 22.261719 20.535156 21.992188 20.367188 21.640625 C 20.199219 21.285156 20.179688 20.886719 20.3125 20.519531 C 20.445312 20.148438 20.710938 19.855469 21.066406 19.6875 C 21.265625 19.589844 21.476562 19.542969 21.691406 19.542969 C 21.855469 19.542969 22.019531 19.574219 22.175781 19.628906 L 22.1875 19.632812 C 22.554688 19.761719 22.847656 20.03125 23.015625 20.386719 C 23.144531 20.65625 23.1875 20.945312 23.144531 21.226562 C 23.128906 21.324219 23.105469 21.417969 23.074219 21.507812 C 23.035156 21.617188 22.980469 21.714844 22.921875 21.8125 C 22.773438 22.035156 22.570312 22.21875 22.320312 22.339844 C 22.140625 22.421875 21.953125 22.46875 21.765625 22.480469 C 21.574219 22.488281 21.382812 22.460938 21.199219 22.394531 Z M 6.292969 12.917969 C 6.542969 13.050781 6.703125 13.140625 6.707031 13.144531 C 6.839844 13.21875 6.984375 13.257812 7.128906 13.257812 C 7.378906 13.257812 7.628906 13.144531 7.792969 12.929688 C 8.050781 12.597656 8.019531 12.125 7.722656 11.824219 C 6.652344 10.757812 6.109375 9.125 6.109375 6.96875 C 6.109375 5.488281 6.652344 4.191406 7.679688 3.214844 C 8.316406 2.605469 9.128906 2.132812 10.039062 1.828125 C 9.488281 3.734375 8.914062 7.003906 10.726562 8.820312 C 10.890625 8.980469 11.105469 9.066406 11.320312 9.066406 C 11.503906 9.066406 11.683594 9.007812 11.835938 8.886719 C 11.882812 8.851562 12.523438 8.339844 13.066406 7.386719 C 13.261719 8.246094 13.417969 9.261719 13.417969 10.324219 C 13.417969 10.648438 13.601562 10.941406 13.894531 11.082031 C 14.011719 11.132812 14.132812 11.160156 14.253906 11.160156 C 14.445312 11.160156 14.632812 11.097656 14.785156 10.972656 C 14.890625 10.886719 16.742188 9.355469 17.769531 6.890625 C 17.921875 7.789062 18.027344 8.921875 18.027344 10.324219 C 18.027344 12.953125 17.046875 15.183594 15.496094 16.523438 C 15.433594 16.574219 15.375 16.628906 15.316406 16.675781 C 15.3125 16.679688 15.308594 16.679688 15.304688 16.683594 C 15.113281 16.832031 14.910156 16.960938 14.710938 17.082031 C 15.015625 16.582031 15.191406 15.996094 15.191406 15.363281 C 15.191406 13.570312 14.601562 12.828125 14.535156 12.75 C 14.421875 12.617188 14.238281 12.570312 14.074219 12.628906 C 13.90625 12.691406 13.800781 12.847656 13.800781 13.023438 C 13.800781 13.660156 13.410156 14.285156 13.050781 14.722656 C 12.882812 13.929688 12.574219 13.308594 12.554688 13.273438 C 12.46875 13.101562 12.273438 13.011719 12.082031 13.054688 C 11.894531 13.097656 11.761719 13.269531 11.761719 13.460938 C 11.761719 13.746094 11.363281 13.855469 11.101562 13.898438 C 10.957031 13.488281 11.109375 12.652344 11.28125 12.132812 C 11.324219 12 11.300781 11.847656 11.210938 11.738281 C 11.121094 11.625 10.980469 11.570312 10.839844 11.582031 C 9.234375 11.75 8.347656 12.675781 8.347656 14.195312 C 8.347656 14.628906 8.414062 15.023438 8.546875 15.367188 C 8.503906 15.386719 8.460938 15.410156 8.425781 15.441406 C 8.316406 15.539062 8.265625 15.679688 8.289062 15.824219 C 8.320312 16.027344 8.371094 16.222656 8.4375 16.410156 C 7.484375 15.539062 6.726562 14.332031 6.292969 12.917969 Z M 9.363281 16.453125 C 9.394531 16.46875 9.410156 16.476562 9.414062 16.476562 C 9.605469 16.5625 9.832031 16.492188 9.945312 16.3125 C 10.054688 16.132812 10.011719 15.894531 9.847656 15.765625 C 9.402344 15.414062 9.1875 14.898438 9.1875 14.191406 C 9.1875 13.332031 9.554688 12.785156 10.304688 12.542969 C 10.171875 13.191406 10.097656 14.109375 10.578125 14.625 C 10.65625 14.710938 10.765625 14.75 10.890625 14.757812 C 11.222656 14.753906 11.726562 14.660156 12.097656 14.402344 C 12.214844 14.761719 12.316406 15.210938 12.316406 15.65625 C 12.316406 15.820312 12.410156 15.964844 12.558594 16.035156 C 12.707031 16.105469 12.878906 16.082031 13.003906 15.976562 C 13.050781 15.9375 13.808594 15.292969 14.277344 14.382812 C 14.324219 14.652344 14.355469 14.976562 14.355469 15.363281 C 14.355469 16.753906 13.28125 17.804688 11.839844 17.863281 C 11.539062 17.855469 11.242188 17.820312 10.953125 17.757812 C 10.261719 17.554688 9.6875 17.085938 9.363281 16.453125 Z M 2.308594 19.542969 C 2.523438 19.542969 2.734375 19.59375 2.933594 19.6875 C 3.289062 19.851562 3.554688 20.148438 3.6875 20.519531 C 3.820312 20.886719 3.800781 21.285156 3.632812 21.640625 C 3.464844 21.996094 3.171875 22.261719 2.800781 22.394531 C 2.617188 22.460938 2.425781 22.488281 2.234375 22.480469 C 2.046875 22.46875 1.859375 22.421875 1.679688 22.339844 C 1.429688 22.21875 1.226562 22.035156 1.082031 21.8125 C 1.019531 21.71875 0.964844 21.617188 0.925781 21.507812 C 0.894531 21.414062 0.871094 21.324219 0.855469 21.226562 C 0.8125 20.945312 0.855469 20.65625 0.984375 20.386719 C 1.152344 20.03125 1.445312 19.765625 1.8125 19.632812 L 1.824219 19.628906 C 1.980469 19.574219 2.144531 19.542969 2.308594 19.542969 Z M 4.460938 21.800781 C 4.53125 21.609375 4.578125 21.417969 4.597656 21.21875 C 4.601562 21.21875 4.605469 21.222656 4.613281 21.222656 C 4.65625 21.222656 4.699219 21.214844 4.746094 21.199219 L 7.261719 20.363281 C 7.480469 20.289062 7.597656 20.050781 7.523438 19.832031 C 7.453125 19.613281 7.214844 19.492188 6.996094 19.566406 L 4.515625 20.394531 C 4.503906 20.339844 4.496094 20.289062 4.476562 20.234375 C 4.441406 20.128906 4.394531 20.03125 4.34375 19.9375 L 5.582031 19.523438 C 5.804688 19.449219 5.921875 19.214844 5.847656 18.992188 C 5.773438 18.773438 5.539062 18.65625 5.316406 18.730469 L 4.058594 19.148438 C 3.972656 19.175781 3.90625 19.238281 3.855469 19.308594 C 3.742188 19.203125 3.617188 19.109375 3.488281 19.03125 L 8.113281 17.375 C 8.992188 18.039062 9.960938 18.460938 10.972656 18.628906 C 11.214844 18.675781 11.460938 18.707031 11.714844 18.707031 C 11.753906 18.707031 11.789062 18.703125 11.824219 18.703125 C 11.867188 18.703125 11.90625 18.707031 11.949219 18.707031 C 12.160156 18.707031 12.367188 18.691406 12.574219 18.671875 C 12.644531 18.664062 12.710938 18.65625 12.777344 18.644531 C 12.917969 18.625 13.058594 18.601562 13.199219 18.570312 C 13.269531 18.554688 13.34375 18.542969 13.414062 18.523438 C 13.601562 18.476562 13.785156 18.425781 13.964844 18.359375 C 14.03125 18.335938 14.097656 18.308594 14.164062 18.28125 C 14.292969 18.230469 14.417969 18.179688 14.542969 18.121094 C 14.613281 18.089844 14.679688 18.054688 14.746094 18.019531 C 14.902344 17.941406 15.058594 17.851562 15.210938 17.757812 C 15.226562 17.75 15.242188 17.742188 15.257812 17.730469 C 15.445312 17.613281 15.632812 17.488281 15.8125 17.351562 L 20.523438 19.039062 C 20.363281 19.132812 20.214844 19.242188 20.082031 19.371094 C 20.035156 19.269531 19.953125 19.1875 19.835938 19.148438 L 18.578125 18.730469 C 18.359375 18.65625 18.121094 18.773438 18.046875 18.996094 C 17.976562 19.214844 18.09375 19.453125 18.3125 19.523438 L 19.570312 19.945312 C 19.597656 19.953125 19.625 19.953125 19.652344 19.957031 C 19.605469 20.046875 19.554688 20.136719 19.519531 20.234375 C 19.496094 20.300781 19.488281 20.371094 19.46875 20.4375 C 19.453125 20.425781 19.4375 20.414062 19.417969 20.40625 L 16.902344 19.566406 C 16.679688 19.496094 16.445312 19.613281 16.371094 19.832031 C 16.296875 20.050781 16.417969 20.289062 16.636719 20.363281 L 19.152344 21.203125 C 19.195312 21.214844 19.242188 21.222656 19.285156 21.222656 C 19.324219 21.222656 19.363281 21.214844 19.398438 21.207031 C 19.417969 21.40625 19.464844 21.605469 19.535156 21.800781 L 12 19.101562 Z M 4.460938 21.800781"/>
</svg>

<svg xmlns="http://www.w3.org/2000/svg" width="32" height="32" viewBox="0 0 24 24">
    <path d="M23.973 21.352c.07-.45.004-.907-.196-1.325a2.284 2.284 0 0 0-1.308-1.183c0-.004-.004-.004-.008-.004l-5.965-2.137c1.45-1.504 2.371-3.746 2.371-6.379 0-4.847-1.258-6.71-1.258-6.71 0 3.984-3.355 6.71-3.355 6.71 0-3.144-1.258-5.87-1.258-5.87 0 2.464-1.676 3.773-1.676 3.773-2.242-2.239 0-7.547 0-7.547-3.191.422-6.047 2.62-6.047 6.289 0 2.593.723 4.32 1.856 5.449 0 0-1.004-.582-2.004-.965.266 2.098 1.14 3.942 2.39 5.246l-5.968 2.137c-.004.004-.012.004-.016.004a2.29 2.29 0 0 0-1.308 1.187c-.2.418-.266.875-.196 1.325a2.174 2.174 0 0 0 .383.957c.227.336.535.609.91.789.313.148.649.222.985.222h.004c.261 0 .523-.047.777-.136L12 19.992l8.914 3.192c.027.011.055.011.078.02.11.034.223.066.336.085.05.008.102.008.156.012.07.008.141.02.211.02.024 0 .051-.005.075-.005.023 0 .046-.003.07-.003.133-.008.265-.028.394-.06l.036-.01c.136-.036.277-.083.41-.145.375-.18.683-.457.914-.793.105-.16.203-.328.27-.516.05-.14.09-.289.109-.437zm-2.774 1.043a1.464 1.464 0 0 1-.887-1.875 1.45 1.45 0 0 1 .754-.832 1.409 1.409 0 0 1 1.11-.06l.012.005c.367.129.66.398.828.754.129.27.172.558.129.84-.016.097-.04.191-.07.28a1.515 1.515 0 0 1-.754.832 1.57 1.57 0 0 1-.555.141 1.481 1.481 0 0 1-.567-.085zM6.293 12.918c.25.133.41.223.414.227a.836.836 0 0 0 1.086-.215.84.84 0 0 0-.07-1.106c-1.07-1.066-1.614-2.699-1.614-4.855 0-1.48.543-2.778 1.57-3.754.637-.61 1.45-1.082 2.36-1.387-.55 1.906-1.125 5.176.688 6.992.164.16.378.246.593.246a.82.82 0 0 0 .516-.18c.047-.034.687-.546 1.23-1.5.196.86.352 1.876.352 2.938 0 .324.184.617.477.758.117.05.238.078.359.078a.833.833 0 0 0 .531-.187c.106-.086 1.957-1.618 2.985-4.082.152.898.257 2.03.257 3.433 0 2.63-.98 4.86-2.53 6.2-.063.05-.122.105-.18.152-.005.004-.008.004-.012.008a6.303 6.303 0 0 1-.594.398c.305-.5.48-1.086.48-1.719 0-1.793-.59-2.535-.656-2.613a.417.417 0 0 0-.734.273c0 .637-.39 1.262-.75 1.7a6.43 6.43 0 0 0-.496-1.45.418.418 0 1 0-.793.188c0 .285-.399.394-.66.437-.145-.41.007-1.246.18-1.765a.422.422 0 0 0-.442-.551c-1.606.168-2.492 1.094-2.492 2.613 0 .434.066.828.199 1.172a.417.417 0 0 0-.258.457c.031.203.082.399.149.586-.954-.87-1.711-2.078-2.145-3.492zm3.07 3.535a.315.315 0 0 0 .051.024.424.424 0 0 0 .531-.165.422.422 0 0 0-.097-.546c-.446-.352-.66-.868-.66-1.575 0-.859.367-1.406 1.117-1.648-.133.648-.207 1.566.273 2.082a.443.443 0 0 0 .313.133c.332-.004.836-.098 1.207-.356.117.36.218.809.218 1.254 0 .164.094.309.243.38.148.07.32.046.445-.06.047-.039.805-.683 1.273-1.593.047.27.078.594.078.98 0 1.39-1.074 2.442-2.515 2.5a4.783 4.783 0 0 1-.887-.105 2.601 2.601 0 0 1-1.59-1.305zm-7.054 3.09c.214 0 .425.05.625.145.355.164.62.46.753.832.133.367.114.765-.054 1.12a1.481 1.481 0 0 1-1.398.84 1.57 1.57 0 0 1-.555-.14 1.478 1.478 0 0 1-.598-.527 1.402 1.402 0 0 1-.227-.586c-.042-.282 0-.57.13-.84.167-.356.46-.621.828-.754l.011-.004c.156-.055.32-.086.485-.086zm2.152 2.258c.07-.192.117-.383.137-.582.004 0 .007.004.015.004a.414.414 0 0 0 .133-.024l2.516-.836a.42.42 0 0 0 .261-.531.415.415 0 0 0-.527-.266l-2.48.829c-.012-.055-.02-.106-.04-.16a1.854 1.854 0 0 0-.132-.297l1.238-.415a.418.418 0 1 0-.266-.793l-1.257.418a.412.412 0 0 0-.204.16 2.265 2.265 0 0 0-.367-.277l4.625-1.656c.88.664 1.848 1.086 2.86 1.254.242.047.488.078.742.078.039 0 .074-.004.11-.004.042 0 .081.004.124.004.211 0 .418-.016.625-.035.07-.008.137-.016.203-.027.141-.02.282-.043.422-.075.07-.015.145-.027.215-.047a5.26 5.26 0 0 0 .75-.242c.129-.05.254-.101.379-.16a3.28 3.28 0 0 0 .203-.101 6.11 6.11 0 0 0 .465-.262 7.329 7.329 0 0 0 .602-.406l4.71 1.687c-.16.094-.308.203-.441.332a.41.41 0 0 0-.246-.223l-1.258-.418a.418.418 0 1 0-.265.793l1.257.422c.028.008.055.008.082.012-.047.09-.097.18-.132.277-.024.067-.032.137-.051.203-.016-.011-.032-.023-.051-.03l-2.516-.84a.423.423 0 0 0-.53.265.421.421 0 0 0 .265.531l2.515.84a.52.52 0 0 0 .133.02c.04 0 .078-.008.113-.016.02.2.067.398.137.594L12 19.1zm0 0"/>
</svg>
